X:1
T:There, Ever There
T:There, Ever There
T:John Harrison Tenney
T:Edgar A. Holme, 1881
T:Public Domain Courtesy of the Cyber Hymnal™
T:Public Domain Courtesy of the Cyber Hymnal™
C:John Harrison Tenney
Z:Public Domain
Z:Courtesy of the Cyber Hymnal™
%%score 1 ( 2 3 )
L:1/8
Q:1/4=100
M:4/4
K:C
V:1 treble 
V:2 bass 
V:3 bass 
V:1
 [EG]2 [CE]>[DF] [EG]2 [Ec][Fd] | [Ge]2 [Gc]>[Gc] [Gd]4 | [Ge]2 [Gc]>[GB] [FA]2 [Fd][Fd] | %3
w: 1.~There, ev- er there, in that|beau- ti- ful land,|Close by the throne of the|
w: 2.~Friends and com- pan- ions were|tak- en a- way,|Kind hands have laid them be-|
w: 3.~They who so faith- ful- ly|taught us to pray,|Passed from our homes and our|
 [Ec]2 [DB]>[DB] [Ec]4 | [Gd]2 [Gd]>[Gd] [Gd]2 [Ge][Fd] | [Ec]2 [GB]>[FA] [EG]4 | %6
w: Sav- ior they stand;|Loved ones who left us to|cross the dark flood,|
w: neath the cold clay;|But we shall meet them on|fair E- den’s plain,|
w: fire- sides a- way;|Dy- ing, they told us to|meet them a- gain,|
 [Ec]2 [Ee]>[Ec] [FA]2 [Fc][FA] | [EG]2 [FA][FB] [Ec]4 ||"^Refrain" [FA]6 [Ac]>[FA] | %9
w: Now safe at home in that|bliss- ful a- bode.|All, all are|
w: Yes, we shall met them and|greet them a- gain.||
w: Yon- der where com- eth no|sick- ness and pain.||
 [EG]6 [Ec]>[Ge] | [Gd]6 [Ec]>[Fd] | [Ge]6 z2 | [FA]6 [Ac]>[FA] | [EG]6 [Ec]>[Ge] | %14
w: there, We shall|meet them a-|gain;|All, all are|there, We shall|
w: |||||
w: |||||
 [Fd]2 [Fd]>[Fd] [Ec]2 [DB][DB] | [Ec]6 z2 |] %16
w: meet them and greet them a-|gain.|
w: ||
w: ||
V:2
 [C,C]2 [C,G,]>[C,G,] [C,C]2 [C,C][C,C] | [C,C]2 [E,C]>[E,C] [G,B,]4 | %2
w: ~ ~ ~ ~ ~ ~|~ ~ ~ ~|
 [C,C]2 [E,C]>[E,C] [E,C]2 [F,A,][F,A,] | G,2 G,>G, [C,G,]4 | %4
w: ~ ~ ~ ~ ~ ~|~ ~ ~ ~|
 [G,B,]2 [G,B,]>[G,B,] [G,B,]2 [G,B,][G,B,] | [C,C]2 [C,C]>[C,C] [C,C]4 | %6
w: ~ ~ ~ ~ ~ ~|~ ~ ~ ~|
 [A,C]2 [A,C]>[A,C] [F,C]2 [F,A,][A,C] | [G,C]2 G,G, [C,G,]4 || [F,C]2 [F,C]>[F,C] [F,C]2 z2 | %9
w: ~ ~ ~ ~ ~ ~|~ ~ ~ ~|All, all are there;|
 [C,C]2 [C,C]>[C,C] [C,C]2 z2 | [G,B,]2 [G,B,]>[G,B,] [G,B,]2 z2 | [C,C]2 [C,C]>[C,C] [C,C]2 z2 | %12
w: all, all are there;|There we shall all,|all meet a- gain,|
 [F,C]2 [F,C]>[F,C] [F,C]2 z2 | [C,C]2 [C,C]>[C,C] [C,C]2 [C,C]>[C,C] | %14
w: All, all are there;|there, shall we meet, We shall|
 [F,A,]2 [F,A,]>[F,A,] G,2 [G,,G,][G,,G,] | [C,G,]6 z2 |] %16
w: met them and greet them a-|gain.|
V:3
 x8 | x8 | x8 | G,2 G,>G, x4 | x8 | x8 | x8 | x2 G,G, x4 || x8 | x8 | x8 | x8 | x8 | x8 | %14
 x4 G,2 x2 | x8 |] %16

